!! J.S. Bach, Die Kunst der Fuge; Fuga XIV in d minor; BWV 1080.
!! Encoded from "Bach; Die Kunst der Fuge", (Carl Czerny, ed.)
!! New York: C.F. Peters Co., pp.52-55; in four voices.
!! Performance duration: 3:48; performance tempo: 103.2 quarter-notes per min.
!! (Davitt Moroney, harpsichord, "Bach, 'Die Kunst der Fuge'",
!! Harmonia Mundi No. HMC 1169.70)
!! NOTE: This fugue is a variation on Fugue 10.
**kern	**kern	**kern	**kern
*d:	*d:	*d:	*d:
*M2/2	*M2/2	*M2/2	*M2/2
*MM103.2	*MM103.2	*MM103.2	*MM103.2
=1	=1	=1	=1
1r	1r	1r	2aa
.	.	.	4.dd
.	.	.	8ee
=2	=2	=2	=2
1r	1r	1r	4.ff
.	.	.	8gg
.	.	.	2aa
=3	=3	=3	=3
1r	1r	1r	2bb-
.	.	.	4.aa
.	.	.	8gg
=4	=4	=4	=4
1r	2d	1r	[2ff
.	4.A	.	8ff]
.	.	.	8ee
.	.	.	8ff#
.	8Bn	.	8gg#
=5	=5	=5	=5
1r	4.c	1r	12aa
.	.	.	12ggn
.	.	.	12ffn
.	.	.	[4ee
.	8d	.	.
.	2e	.	8ee]
.	.	.	8dd
.	.	.	8cc
.	.	.	8bn
=6	=6	=6	=6
1r	2f	1r	8a
.	.	.	8g#
.	.	.	8a
.	.	.	8bn
.	4.e	.	8cc#
.	.	.	8dd
.	.	.	8ee
.	8d	.	8ff
=7	=7	=7	=7
1r	[2c#	1r	8gg
.	.	.	8aa
.	.	.	8bb-
.	.	.	8gg
.	8c#]	.	8ee
.	8A	.	8aa
.	8Bn	.	8gg
.	8c#	.	8aa
=8	=8	=8	=8
1r	8d	1r	8ff
.	8e	.	8gg
.	[4f	.	8aa
.	.	.	8ff
.	8f]	.	8dd
.	8e	.	8gg
.	8d	.	8ff
.	8e	.	8gg
=9	=9	=9	=9
2A	8c#	1r	8ee
.	8d	.	8ff
.	[4e	.	8gg
.	.	.	8ee
4.D	8e]	.	4.ff
.	8A	.	.
.	[4d	.	.
8E	.	.	8gg
=10	=10	=10	=10
4.F	8d]	1r	4.aa
.	8e	.	.
.	[4f	.	.
8G	.	.	8gg
2A	8f]	.	8ff
.	8g	.	8ee
.	[4a	.	8dd
.	.	.	8cc#
=11	=11	=11	=11
2B-	8a]	1r	[2dd
.	8g	.	.
.	8f	.	.
.	8e	.	.
4.A	4f	.	8dd]
.	.	.	8dd
.	4e	.	4cc#
8G	.	.	.
=12	=12	=12	=12
[2F	4A	2dd	8dd
.	.	.	8b-
.	8B-	.	8a
.	8c#	.	8g
8F]	2d	4.a	4f
8E	.	.	.
8F	.	.	[4ff
8G	.	8bn	.
=13	=13	=13	=13
[2A	4.cn	4.cc	8ff]
.	.	.	8ee
.	.	.	8ff#
.	8Bn	8dd	8gg#
8A]	[2c	2ee	[2aa
8Gn	.	.	.
8Fn	.	.	.
8E	.	.	.
=14	=14	=14	=14
2D	8c]	2ff	2aa_
.	8c	.	.
.	8B-	.	.
.	8A	.	.
[2G	4.B-	4.ee	8aa]
.	.	.	8aa
.	.	.	8gg
.	16A	8dd	8ff
.	16G	.	.
=15	=15	=15	=15
8G]	2A	[2cc#	4ee
8G	.	.	.
8F	.	.	2aa
8E	.	.	.
[2F	2r	8cc#]	.
.	.	8a	.
.	.	8bn	4gg
.	.	8cc#	.
=16	=16	=16	=16
8F]	1r	[2dd	2ff
8E	.	.	.
8F	.	.	.
8G	.	.	.
[2A	.	8dd]	[2ee
.	.	8dd	.
.	.	8ccn	.
.	.	8bn	.
=17	=17	=17	=17
8A]	1r	[2cc	4ee]
8B-	.	.	.
8A	.	.	8ff#
8G	.	.	8gg
4.F#T	.	8cc]	4aa
.	.	8cc	.
.	.	8b-	[4dd
16E	.	8a	.
16F#	.	.	.
=18	=18	=18	=18
8G	1r	[2b-	4dd]
8A	.	.	.
8G	.	.	8ee
8Fn	.	.	8ffn
4.ET	.	8b-]	4gg
.	.	8b-	.
.	.	8a	[4cc
16D	.	8g	.
16E	.	.	.
=19	=19	=19	=19
4F	1r	[2a	8cc]
.	.	.	8bn
8E	.	.	8cc#
8D	.	.	8dd
4.C#T	.	8a]	4ee
.	.	8g	.
.	.	8f	[4a
16BBn	.	8e	.
16C#	.	.	.
=20	=20	=20	=20
[2D	1r	2.f	8a]
.	.	.	8a
.	.	.	8dd
.	.	.	8cc#
8D]	.	.	[2dd
8FF	.	.	.
8BB-	.	4f	.
8AA	.	.	.
=21	=21	=21	=21
8GG	1r	2.e	4dd]
8AA	.	.	.
8BB-	.	.	4dd
8GG	.	.	.
8EE	.	.	2cc#
8AA	.	.	.
8GG	.	4e	.
8AA	.	.	.
=22	=22	=22	=22
8FF	4r	2a	8dd
8GG	.	.	8b-
8AA	4F	.	[4ccn
8FF	.	.	.
4.BB-	4G	4.d	8cc]
.	.	.	8a
.	4D	.	[4b-
8GG	.	8e	.
=23	=23	=23	=23
4.D	4r	4.f	8b-]
.	.	.	8a
.	4B-	.	[4dd
8E	.	8g	.
4.F	4A	2a	8dd]
.	.	.	8cc#
.	4d	.	[4dd
8F#	.	.	.
=24	=24	=24	=24
2G	8G	2b-	8dd]
.	8A	.	8cc#
.	8B-	.	8dd
.	8cn	.	8ee
8F	8d	4.a	4.ff
8G	8e	.	.
4A	[4f	.	.
.	.	8g	8ee
=25	=25	=25	=25
4B-	8f]	[2f	[2dd
.	8e	.	.
2A	8d	.	.
.	8c	.	.
.	2B-	8f]	8dd]
.	.	8e	8cc#
[4G	.	8f	8dd
.	.	8g	8ee
=26	=26	=26	=26
8G]	2.A	4a	4cc#
8G	.	.	.
8F	.	[4dd	4r
8E	.	.	.
[2F	.	8dd]	2r
.	.	8ccn	.
.	8d	8b-	.
.	8c	8a	.
=27	=27	=27	=27
4F]	8B-	4g	1r
.	8A	.	.
8E	2G	[4cc	.
8D	.	.	.
[2E	.	8cc]	.
.	.	8b-	.
.	8c	8a	.
.	8B-	8g	.
=28	=28	=28	=28
4E]	8A	4f	4r
.	8G	.	.
8D	[4F	2b-	8dd
8C#	.	.	8ee
[2D	8F]	.	8ff
.	8E	.	8gg
.	4F	4a	8aa
.	.	.	8ff
=29	=29	=29	=29
2D]	4B-	4ee	8gg
.	.	.	8bb-
.	4E	4r	8aa
.	.	.	8bb-
2C#	[2A	2r	8ee
.	.	.	8ff
.	.	.	8gg
.	.	.	8ee
=30	=30	=30	=30
2D	8A]	4r	8ff
.	8G	.	8ee
.	8F	4d	[4dd
.	8G	.	.
4.AA	4A	4f	8dd]
.	.	.	8bn
.	4E	4c	8cc
8BBn	.	.	8dd
=31	=31	=31	=31
4.C	4.A	4r	8ee
.	.	.	8dd
.	.	4a	[4cc
8D	8Bn	.	.
2E	8c	4g	8cc]
.	8d	.	8bn
.	8c	4cc	[4ee
.	8B-	.	.
=32	=32	=32	=32
2F	2.A	8f	4ee]
.	.	8g	.
.	.	8a	4dd
.	.	8bn	.
4.E	.	8cc	4cc
.	.	8dd	.
.	4G#	[4ee	4bn
8D	.	.	.
=33	=33	=33	=33
[2C	4A	8ee]	2a
.	.	8dd	.
.	4E	8cc	.
.	.	8bn	.
8C]	4e	[2a	2r
8BBn	.	.	.
8C	8d	.	.
8D	8c	.	.
=34	=34	=34	=34
8E	4Bn	8a]	1r
8D#	.	8f#	.
4E	8E	4g#	.
.	8F#	.	.
4r	8G#	2r	.
.	8A	.	.
4E	8B	.	.
.	8c	.	.
=35	=35	=35	=35
8F#	8dn	1r	1r
8G#	8e	.	.
2A	8fn	.	.
.	8d	.	.
.	8Bn	.	.
.	8e	.	.
8G#	8d	.	.
8F#	8e	.	.
=36	=36	=36	=36
4Gn	8c#	1r	4r
.	8A	.	.
4Fn	4d	.	8a
.	.	.	8bn
4E	4G	.	8cc#
.	.	.	8dd
4D	4B-	.	8ee
.	.	.	8ff
=37	=37	=37	=37
4C#	4E	1r	8gg
.	.	.	8aa
8D	2D	.	8bb-
8BB-	.	.	8gg
4GG	.	.	8ee
.	.	.	8aa
4AA	4C#	.	8gg
.	.	.	8aa
=38	=38	=38	=38
4DD	4D	4r	8ff
.	.	.	8gg
4r	4r	8d	8ff
.	.	8e	8ee
2r	2r	8f	8dd
.	.	8g	8ee
.	.	8a	8ff
.	.	8b-	8dd
=39	=39	=39	=39
1r	1r	8cc	8ee
.	.	8dd	8ff#
.	.	8ee-	2gg
.	.	8cc	.
.	.	8a	.
.	.	8dd	.
.	.	8cc	4ff#
.	.	8dd	.
=40	=40	=40	=40
4r	1r	8b-	4gg
.	.	8cc	.
8GG	.	8b-	4dd
8AA	.	8a	.
8BB-	.	8g	[2gg
8C	.	8a	.
8D	.	8b-	.
8En	.	8g	.
=41	=41	=41	=41
8F	1r	8a	4gg]
8G	.	8bn	.
8A	.	2cc	8ff
8F	.	.	8ee
8D	.	.	4ff
8G	.	.	.
8F	.	[4b-	4dd
8G	.	.	.
=42	=42	=42	=42
8E	1r	4b-]	2.cc
8F	.	.	.
8G	.	4e	.
8E	.	.	.
8C	.	[2a	.
8F	.	.	.
8E	.	.	4cc
8F	.	.	.
=43	=43	=43	=43
8D	1r	4a]	[2ff
8E	.	.	.
8F	.	4dd	.
8D	.	.	.
8BBn	.	[2g	8ff]
8E	.	.	8gg
8D	.	.	8ff
8E	.	.	8gg
=44	=44	=44	=44
2C#	2A	8g]	4ee
.	.	8g	.
.	.	8f	4a
.	.	8e	.
[2D	4.D	8f	4b-
.	.	8e	.
.	.	8d	4f
.	8E	8c#	.
=45	=45	=45	=45
4D]	4.F	8d	4r
.	.	8e	.
4BB-	.	[4f	4dd
.	8G	.	.
4.F	2A	8f]	4cc
.	.	8e	.
.	.	[4d	4ff
8D	.	.	.
=46	=46	=46	=46
4.G	2B-	4d]	8b-
.	.	.	8cc
.	.	8dd	8dd
8G	.	8cc#	8ee
4.F	4.A	8dd	8ff
.	.	8ee	8gg
.	.	[4ff	[4aa
8E	8G	.	.
=47	=47	=47	=47
4.D	[2F	4ff]	8aa]
.	.	.	8gg
.	.	4a	8ff
8C	.	.	8ee
2BB-	8F]	4b-	2dd
.	8E	.	.
.	8F	8d	.
.	8G	8e	.
=48	=48	=48	=48
2F	8A	8f	[2cc
.	8c	8e	.
.	8d	8f	.
.	8e	8g	.
2r	4.f	4.a	8cc]
.	.	.	8cc
.	.	.	8dd
.	8e	8g	8ee
=49	=49	=49	=49
2r	4.d	8f	[2ff
.	.	8a	.
.	.	8b-	.
.	8c	8cc	.
8r	4.B-	[2dd	8ff]
8D	.	.	8ff
8E	.	.	8gg
8F	8A	.	8aa
=50	=50	=50	=50
2G	8G	4.dd]	2bb-
.	8d	.	.
.	8e	.	.
.	8f#	8cc	.
2r	4.g	4.b-	8r
.	.	.	8dd
.	.	.	8ee
.	8fn	8a	8ffn
=51	=51	=51	=51
1r	4.e	8g	[2gg
.	.	8bn	.
.	.	8cc	.
.	8d	8dd	.
8r	4.c	[2ee	8gg]
8E	.	.	8gg
8F	.	.	8aa
8G	8B-	.	8bb-
=52	=52	=52	=52
2A	8A	4.ee]	2ccc
.	8e	.	.
.	8f	.	.
.	8g	8dd	.
2r	4.a	4.cc	8r
.	.	.	8ee
.	.	.	8ff
.	8g	8b-	8gg
=53	=53	=53	=53
4r	8f	2cc	2aa
.	8e	.	.
4A	8f	.	.
.	8c	.	.
4B-	8d	4.f	4.dd
.	8c	.	.
4F	8d	.	.
.	8B-	8g	8ee
=54	=54	=54	=54
4r	8A	4.a	4.ff
.	8G	.	.
4D	[4F	.	.
.	.	8b-	8gg
4C	8F]	2cc	2aa
.	8E	.	.
4F	8F	.	.
.	[8A	.	.
=55	=55	=55	=55
8BB-	4.A]	2dd	2bb-
8C	.	.	.
8D	.	.	.
8E	8G	.	.
8F	4.A	4.cc	4.aa
8G	.	.	.
[4A	.	.	.
.	8B-	8b-	8gg
=56	=56	=56	=56
8A]	2.c	[2a	[2ff
8G	.	.	.
8F	.	.	.
8E	.	.	.
2D	.	8a]	8ff]
.	.	8g	8ee
.	[4F	8a	8ff
.	.	8b-	8gg
=57	=57	=57	=57
2C	8F]	2cc	8aa
.	8D	.	8ff
.	8E	.	[4gg
.	8G	.	.
2r	4.c	2r	8gg]
.	.	.	8dd
.	.	.	8ee
.	8B-	.	8gg
=58	=58	=58	=58
1r	[2A	8r	2cc
.	.	8e	.
.	.	8f	.
.	.	8a	.
.	8A]	4d	[2b-
.	8F	.	.
.	8G	4e	.
.	8c	.	.
=59	=59	=59	=59
1r	2F	4.f	8b-]
.	.	.	8g
.	.	.	8a
.	.	8e	8cc
.	4r	8d	[2ff
.	.	8A	.
.	[4B-	8B-	.
.	.	8d	.
=60	=60	=60	=60
1r	8B-]	[2g	4ff]
.	8D	.	.
.	8E	.	4bn
.	8G	.	.
.	4.C#	8g]	[2ee
.	.	8b-	.
.	.	8a	.
.	8C#	8e	.
=61	=61	=61	=61
1r	8D	2f	4ee]
.	8E	.	.
.	8F	.	[4dd
.	8A	.	.
.	4.d	2r	8dd]
.	.	.	8ee
.	.	.	8ff
.	8cn	.	8aa
=62	=62	=62	=62
1r	[2B-	8r	2dd
.	.	8f#	.
.	.	8g	.
.	.	8b-	.
.	8B-]	4e	[2cc
.	8G	.	.
.	8A	4f#	.
.	8d	.	.
=63	=63	=63	=63
2G	4G	4g	8cc]
.	.	.	8a
.	8d	4g	8bn
.	8e	.	8cc#
4.D	8fn	4b-	4dd
.	8e	.	.
.	8d	4f	4a
8E	8c#	.	.
=64	=64	=64	=64
4.F	8d	4r	4r
.	8A	.	.
.	[4a	4dd	4ff
8G	.	.	.
2A	8a]	4ccn	4ee
.	8e	.	.
.	8c	4ff	4aa
.	8f	.	.
=65	=65	=65	=65
2B-	4g	8b-	8dd
.	.	8cc	8ee
.	4d	8dd	8ff
.	.	8ee	8gg
4.A	8r	8ff	8aa
.	8d	8gg	8bb-
.	8c	[4aa	[4ccc
8G	8B-	.	.
=66	=66	=66	=66
[2F	4.A	8aa]	8ccc]
.	.	8gg	8bb-
.	.	8ff	8aa
.	8c#	8ee	8gg
8F]	4d	2dd	2ff
8E	.	.	.
8F	4A	.	.
8G	.	.	.
=67	=67	=67	=67
2A	8a	2cc#	2ee
.	8e	.	.
.	8d	.	.
.	8e	.	.
8r	4f	2r	2r
8A	.	.	.
8G	4c#	.	.
8A	.	.	.
=68	=68	=68	=68
4B-	4d	8r	2r
.	.	8g	.
4F#	4A	8a	.
.	.	8g	.
4A	4cn	4f#	8r
.	.	.	8cc
4D	4F#	4a	8dd
.	.	.	8cc
=69	=69	=69	=69
4E-	4G	8r	2b-
.	.	8g	.
4En	4c	8fn	.
.	.	8g	.
4F	8r	4a	2r
.	8c	.	.
4r	8B-	4e	.
.	8c	.	.
=70	=70	=70	=70
2r	4d	4f	8r
.	.	.	8ff
.	4A	4c	8gg
.	.	.	8ff
8r	4c	4g	4ee
8E	.	.	.
8F	4c#	4ee	4aa
8E	.	.	.
=71	=71	=71	=71
4D	4d	4a	8ff
.	.	.	8aa
2F	4cn	4r	8bb-
.	.	.	8aa
.	4B-	8r	4gg
.	.	8dd	.
[4E-	4G	8ee-	4ccc
.	.	8dd	.
=72	=72	=72	=72
4E-]	8A	4cc	4ff
.	8c	.	.
4D	8B-	4ff	4bb-
.	8c	.	.
8r	4d	4b-	4r
8F	.	.	.
8E-	4A	4cc	[4ff
8F	.	.	.
=73	=73	=73	=73
4G	4B-	8r	4ff]
.	.	8g	.
4C	[4c	8a	2ee-
.	.	8g	.
2D	8c]	4f	.
.	8A	.	.
.	8B-	4b-	[4dd
.	8A	.	.
=74	=74	=74	=74
4E-	4G	8r	4dd]
.	.	8e-	.
4AA	4c	8f	2cc
.	.	8e-	.
2BB-	8r	4d	.
.	8F	.	.
.	8G	4g	[4b-
.	8F	.	.
=75	=75	=75	=75
4C	4En	8r	4b-]
.	.	8c	.
4FF#	4A	8d	[4a
.	.	8c	.
2GG	8r	4B-	8a]
.	8D	.	8g
.	8E-	[4b-	[4gg
.	8C#	.	.
=76	=76	=76	=76
2DD	4D	8b-]	8gg]
.	.	8g	8een
.	4r	[4a	4ff#
2r	4.d	8a]	[2ffn
.	.	8g	.
.	.	8f	.
.	8c	8e-	.
=77	=77	=77	=77
1r	8Bn	4d	4ff]
.	8A	.	.
.	4G	[4g	8ee-
.	.	.	8dd
.	4.c	8g]	[2ee-
.	.	8f	.
.	.	8e-	.
.	8B-	8d	.
=78	=78	=78	=78
1r	8A	4c	4ee-]
.	8G	.	.
.	4F	[4f	8dd
.	.	.	8cc
.	4.B-	8f]	8dd
.	.	8e-	8ee-
.	.	8d	[4ff
.	8A	8c	.
=79	=79	=79	=79
1r	1G	4.B-	8ff]
.	.	.	8dd
.	.	.	8een
.	.	8A	8ff
.	.	8B-	4gg
.	.	8c	.
.	.	8d	[4b-
.	.	8e	.
=80	=80	=80	=80
1r	4.F	4f	8b-]
.	.	.	8g
.	.	4c	8a
.	8G	.	8b-
.	8A	2r	8cc
.	8B-	.	8dd
.	8c	.	8ee-
.	8A	.	8cc
=81	=81	=81	=81
4r	4B-	8r	4dd
.	.	8cc	.
4D	4F	8b-	4ff
.	.	8a	.
4E-	4G	8g	4.b-
.	.	8f	.
4BB-	4D	8g	.
.	.	8a	8cc
=82	=82	=82	=82
4r	4r	8b-	4.dd
.	.	8a	.
4G	4B-	8b-	.
.	.	8g	8een
4F	4A	8cc	2ff
.	.	8ee-	.
4B-	4d	8dd	.
.	.	8cc	.
=83	=83	=83	=83
8E-	8G	4b-	2gg
8F	8A	.	.
8G	8B-	4ee-	.
8A	8c	.	.
8B-	8d	8r	4.ff
8c	8e-	8ee-	.
[4d	[4f	8dd	.
.	.	8cc	8ee-
=84	=84	=84	=84
8d]	8f]	8b-	[2dd
8c	8e-	8a	.
8B-	8d	8g	.
8A	8c	8a	.
2G	2B-	8b-	8dd]
.	.	8a	8cc
.	.	8b-	8dd
.	.	8g	8een
=85	=85	=85	=85
2F	4A	4cc	4ff
.	4f	4r	8f
.	.	.	8g
2r	4e-	4r	8a
.	.	.	8b-
.	4d	4f	8cc
.	.	.	8dd
=86	=86	=86	=86
1r	2c	8g	8ee-
.	.	8a	8ff
.	.	2b-	8gg
.	.	.	8ee-
.	2f	.	8cc
.	.	.	8ff
.	.	[4a	8ee-
.	.	.	8ff
=87	=87	=87	=87
1r	8B-	4a]	8dd
.	8c	.	8ee-
.	8d	4d	8ff
.	8B-	.	8dd
.	8e-	8r	4b-
.	8d	8g	.
.	8c	8a	[4gg
.	8B-	8b-	.
=88	=88	=88	=88
1r	8A	8cc	4gg]
.	8B-	8dd	.
.	8c	8ee-	2gg
.	8A	8cc	.
.	4d	8a	.
.	.	8dd	.
.	4D	8cc	4ff#
.	.	8dd	.
=89	=89	=89	=89
1r	4G	2b-	8gg
.	.	.	8ffn
.	[4g	.	8ee-
.	.	.	8dd
.	8g]	4a	4cc#
.	8f	.	.
.	8en	[4b-	4dd
.	8d	.	.
=90	=90	=90	=90
1r	8c#	8b-]	[2een
.	8d	8a	.
.	8e	8g	.
.	8c#	8a	.
.	8d	[2f	8ee]
.	8cn	.	8a
.	8B-	.	8dd
.	8A	.	8cc
=91	=91	=91	=91
1r	8G	8f]	[1b-
.	8D	8a	.
.	8E	8g	.
.	8F	8f	.
.	8G	4e	.
.	8A	.	.
.	8B-	4d	.
.	8G	.	.
=92	=92	=92	=92
1r	1A	8c#	8b-]
.	.	8d	8b-
.	.	[4e	8a
.	.	.	8g
.	.	8e]	4.f
.	.	8e	.
.	.	[4d	.
.	.	.	8f
=93	=93	=93	=93
2A	4r	4d]	8e
.	.	.	4a
.	4A	4c#	.
.	.	.	8g
4.D	4B-	4d	8f
.	.	.	8e
.	4F	4A	8f
8E	.	.	8g
=94	=94	=94	=94
4.F	4r	4r	8a
.	.	.	8g
.	4d	4f	8a
8G	.	.	8b-
2A	4c	4e	8cc
.	.	.	8dd
.	4f	4a	8ee-
.	.	.	8cc
=95	=95	=95	=95
2B-	8B-	8d	2dd
.	8c	8en	.
.	8d	8f	.
.	8e	8g	.
4.A	8f	8a	4cc
.	8g	8b-	.
.	[4a	[4cc	8ff
8G	.	.	8ee
=96	=96	=96	=96
[2F	8a]	8cc]	4.ff
.	8g	8b-	.
.	8f	8a	.
.	8e	8g	8cc#
8F]	4.d	8f	[2dd
8E	.	8g	.
8F	.	[4a	.
8G	8e	.	.
=97	=97	=97	=97
1A	4f	1a_	2.dd]
.	8e	.	.
.	8d	.	.
.	8e	.	.
.	8f	.	.
.	[4g	.	4cc#T
=98	=98	=98	=98
2D;	4g]	2a;]	2dd;
.	4f#;	.	.
2r	2r	2r	2r
====	====	====	====
*-	*-	*-	*-
